X:1
T:[ID 3-61]
T:[ID 3-61]
T:Bezeichnung standardisiert: Allegro Allegro Primo
T:Urheber unbekannt Datum in der hier transkribierten schriftlichen Quelle: 1767
C:Urheber unbekannt
C:Datum in der hier transkribierten schriftlichen Quelle: 1767
%%score 1 2
L:1/8
M:2/4
K:D
V:1 treble nm="Primo"
V:2 treble nm="Secondo"
V:1
 A | dc/B/ A/G/F/E/ | DfEg | Fa Bd | cB/c/ Aa | bGFa | bGFa | b/a/g/f/ g/f/e/d/ | %8
 e/d/c/B/ A/G/F/E/ | Ca^ge | ca^ge | fd'ec' | dbca | B^gad | cab^g | a3 :: e | aABd | ca ^gf/e/ | %19
 fdca | Bg Af | gb b/a/g/f/ | eg g/f/e/d/ | ce e/d/c/B/ | A3 a | bGEb | aFDa | bd'gb | ad'fa | %29
 Bd ed/c/ | de/f/ g/a/b/c'/ | d'ded/c/ | d3 :| %33
V:2
 !fermata!F | FfcA | fdge | afdB | A2 z f | gbaf | gbaf | g/f/e/d/ b/a/g/f/ | g/f/e/d/ c/B/A/G/ | %9
 Ec Bg | acBc | d z c z | B z A z | BbcB | A2 dB | c3 :: c | c2 dB | cABc | d2 A2 | GB=cG | %21
 Bg g/f/e/d/ | gb b/a/g/f/ | eg g/f/e/d/ | ce Af | ga g2 | fa f2 | g a2 g | f a2 f | FA GF/E/ | %30
 F2 z2 | fFGA | D3 :| %33

